img/grav_len_xx.svg

<svg viewBox="0 0 118.40039 118.40039" xmlns="http://www.w3.org/2000/svg"><g transform="translate(-.0005)"><g transform="translate(.0005)"><path d="m10.943359 92.142578c-.123071-.01227-.249927-.007302-.376953.017578-4.7580375.52737-.7551859 6.986512 1.41211 1.841797.516002-.843813-.173658-1.773459-1.035157-1.859375z" fill="#ffec8f"/><path d="m96.199219 86.080078c-3.453523 1.944152 1.868693 1.898442 0 0z" fill="#ffc744"/><path d="m68.560547 83.263672c-6.124949 1.327434-12.377023 1.797383-18.632813 1.529297 1.935047 3.184646 8.899531 1.771531 12.695313 1.611328 1.912365-.543527 5.735459-1.245781 5.9375-3.140625z" fill="#fca44b"/><path d="m76.773438 81.132812c-2.672037.184253-3.815556 4.011046-.365235 1.294922-.969911.173146 1.701909-1.235666.919922-1.279296-.190806-.023111-.376553-.027905-.554687-.015626z" fill="#ffc744"/><path d="m96.0625 78.222656c-3.544171 1.783496.940727 2.748861 0 0z" fill="#ffc744"/><path d="m83.748047 74.201172c-2.467819.872961-4.116134 6.40576-.560547 2.277344.478009-.532769 1.602495-1.716331.560547-2.277344z" fill="#ffc744"/><path d="m81.199219 71.984375c-4.097532 1.548129-4.500339 7.41768-9.269531 8.244141-1.874119 2.28056-3.707747 4.470057.441406 1.96875 3.635176-2.233064 10.362623-5.343223 8.828125-10.212891z" fill="#75a58b"/><path d="m21.423828 71.960938c-1.228538 2.179275 4.821279 5.737305 3.998047 7.84375.45446 3.561002 1.206222 4.920912 3.595703 4.794921 3.51332 2.579263-2.56647 1.24794 1.140625 4.664063 3.326935 1.494618 6.2232 8.463055 1.671875 9.988281-3.837669 5.532737 2.188351 13.455127 7.75 8.226567 2.717806-7.44751 11.338831.65243 16.783203-.33985-2.140586-2.94629-11.952024-2.08478-14.726562-6.74805-.611564-3.630374 6.641267-4.877992 3.642578-9.800776-.142843-3.104792-3.766239-4.828127-1.244141-5.824219-5.860198-.137884-9.922629-4.637258-14.27539-7.78125-2.036505-2.516102-5.196794-4.311155-8.335938-5.023437zm22.994141 6.121093c-2.878486 2.052874 6.126761 2.451142.703125.189453zm46.216797 23.164059c-4.252389 3.21969 3.566111 3.66185 0 0zm-19.121094 2.10547c-3.875376 2.52378 3.361735 4.90096.876953.42774l-.412109-.33789zm-12.560547 3.90235c-2.27144 1.89215 7.843321.78849 1.234375.05859z" fill="#fdb26e"/><path d="m102.08789 63.039062c-2.837231 1.899569-2.08218 10.467504.05469 3.679688.0987-1.118796.70312-2.718748-.05469-3.679688z" fill="#ffc744"/><path d="m105.11914 51.839844c-1.93572 1.615939 1.8805 1.599766 0 0z" fill="#ffc744"/><path d="m26.083984 38.414062c-2.112768 4.025257-5.874866 8.715665-7.693359 13.617188-.887432 5.200938-2.438578 15.272604 5.730469 14.548828 6.920031 2.575358 14.470802 6.071422 21.923828 3.376953 3.725493.483123 9.644842-1.653739 12.328125-1.298828 3.673524-.813582 7.533135.226947 11.585937-1.751953 5.739344-1.047082 11.147902-5.485531 12.013672-11.53125 1.280187-6.164213-1.537183-11.075989-5.771484-14.376953-3.915903.02122-8.898982-3.53314-11.050781-.242188-5.554695-1.001379-7.63406 8.208796-13.689453 6.064453-5.766478-1.706164-11.510952-3.353449-17.65625-3.570312-6.101047-2.530498-5.103096 6.97648-10.806641 7.373047.223539-4.377131 2.275535-8.805206 4.201172-11.583985-.322429-.442369-.628831-.478389-1.115235-.625z" fill="#ffc744"/><path d="m97.396484 35.199219c-1.040485 1.996095 3.124836 10.952299 4.363286 8.720703-.2422-3.242509-2.165104-6.588531-4.363286-8.720703z" fill="#a8f5fb"/><path d="m86.728516 32.716797c-1.933221 1.309149 1.914212 1.231669 0 0z" fill="#ffc744"/><path d="m48.208984 27.216797c-.131613-.02177-.276343-.022014-.433593.003906-4.693237 1.073401.923435 8.251186 1.503906 2.216797.154782-.849443-.149021-2.068306-1.070313-2.220703z" fill="#a6f3e1"/><path d="m20.166016 21.496094c-4.293962 1.711024 3.825622 4.871335.890625.396484l-.41211-.269531z" fill="#ffc744"/><path d="m84.712891 19.193359c-.08713-.01652-.16037-.01551-.216797.00586-.694543 1.727561 1.664614 3.14394-1.53711 2.044922 2.670424 4.200801 7.100518 7.387195 9.933594 11.476562 2.507918-1.720175-6.62176-9.010426-5.478516-9.650391 3.016029.58516-1.394208-3.629126-2.701171-3.876953zm28.929689 4.527344c-1.78347 3.075752 3.52534 1.3877 0 0zm-3.97461 1.876953c-4.28451-.159129-5.95702 8.989205-.32227 4.978516 1.4605-1.214756 1.3596-3.123792 1.21289-4.816406-.30746-.100007-.60499-.151501-.89062-.16211z" fill="#a8f5fb"/><path d="m104.59961 18.628906c-2.89113 1.464686 2.04365 2.287019 0 0z" fill="#ffc744"/><path d="m27.140625 12.503906c-4.252776 3.02107 3.767951 2.328605 0 0z" fill="#ffc744"/><path d="m43.857422 5.4394531c-2.385326.7673779 1.958839.7613073 0 0z" fill="#ffc744"/><path d="m37.259766 4.8007812c-1.156559.7020972 1.558015.6034224 0 0z" fill="#ffc744"/><path d="m24.070312 4.5234375c-3.131374 3.4917286 2.949679 2.9412391 0 0zm11.167969.0410156c-2.374683 1.7677608 2.67126 1.0701279 0 0z" fill="#ffc744"/><path d="m20.025391 0h-9.34375c2.508432.07223654 4.986275.31106213 7.345703 1.1894531.421769-.88584848 1.168838-1.11905294 1.998047-1.1894531z" fill="#ffc744"/><path d="m57.570312 0c9.300129-.00196052 18.600398.02387301 27.894532.265625 2.674006 3.522223 3.552468 1.3932574 3.185547-.265625z" fill="#ffc744"/><path d="m20.628906-.08398438c-.218306-.00579687-.397055.06645584-.603515.08398438h3.902343c-.99275.20008092-2.203733-.05490543-3.298828-.08398438z" fill="#ffc744"/></g><ellipse cx="38.931973" cy="56.410469" fill="#fdfbef" rx="4.130992" ry="3.455012"/><ellipse cx="67.648628" cy="52.855312" fill="#fdfbef" rx="6.960096" ry="6.559515"/><ellipse cx="67.448349" cy="62.419189" fill="#ffec8f" rx="3.955738" ry="1.802615"/><ellipse cx="35.451927" cy="49.700737" fill="#fff0a9" rx="3.955738" ry="1.802615"/><path d="m32.54882 26.401517c-6.142124 1.373056-11.990106 3.642912-17.489837 6.638467.223548-3.969657 7.1617-5.625362 10.652544-7.126192 1.979215-.302076 5.752857-1.283037 6.837293.487725z" fill="#ebd3e1"/><path d="m65.298471 30.246288c-4.888974-2.173676-16.327879-1.280806-12.626261-4.141434 28.599838-5.478042 33.600493 12.244542 12.626261 4.141434z" fill="#6bdef3"/><path d="m55.144955 98.341502c-6.621618-1.134092 8.804418-4.756654 13.81788-6.249155 14.709935-7.984281 17.935523-7.298739 22.557117-12.506439-5.970123 14.046706-27.417646 19.649141-36.374997 18.755594z" fill="#a4dde4"/><path d="m9.3109 62.612132c-.1230713-.021862-.249927-.013008-.376953.031325-4.7580372.939638-.7551863 12.448196 1.41211 3.281614.516002-1.503461-.173658-3.159853-1.035157-3.312934z" fill="#fe4b17"/></g></svg>

<?xml version="1.0" encoding="UTF-8" standalone="no"?>
<svg xmlns="http://www.w3.org/2000/svg" xmlns:sodipodi="http://sodipodi.sourceforge.net/DTD/sodipodi-0.dtd" xmlns:inkscape="http://www.inkscape.org/namespaces/inkscape" version="1.1" viewBox="0 0 118.40039 118.40039">
<g id="g93" transform="translate(-5e-4)"> <path style="fill:#ffec8f;fill-opacity:1;stroke:none;stroke-width:0.31999999;stroke-opacity:1" d="M 10.943359 92.142578 C 10.820288 92.130308 10.693432 92.135276 10.566406 92.160156 C 5.8083685 92.687526 9.8112201 99.146668 11.978516 94.001953 C 12.494518 93.15814 11.804858 92.228494 10.943359 92.142578 z " id="path960" transform="translate(5e-4)" /> <path style="fill:#ffc744;fill-opacity:1;stroke:none;stroke-width:0.31999999;stroke-opacity:1" d="M 96.199219 86.080078 C 92.745696 88.02423 98.067912 87.97852 96.199219 86.080078 z " id="path958" transform="translate(5e-4)" /> <path style="fill:#fca44b;fill-opacity:1;stroke:none;stroke-width:0.31999999;stroke-opacity:1" d="M 68.560547 83.263672 C 62.435598 84.591106 56.183524 85.061055 49.927734 84.792969 C 51.862781 87.977615 58.827265 86.5645 62.623047 86.404297 C 64.535412 85.86077 68.358506 85.158516 68.560547 83.263672 z " id="path956" transform="translate(5e-4)" /> <path style="fill:#ffc744;fill-opacity:1;stroke:none;stroke-width:0.31999999;stroke-opacity:1" d="M 76.773438 81.132812 C 74.101401 81.317065 72.957882 85.143858 76.408203 82.427734 C 75.438292 82.60088 78.110112 81.192068 77.328125 81.148438 C 77.137319 81.125327 76.951572 81.120533 76.773438 81.132812 z " id="path954" transform="translate(5e-4)" /> <path style="fill:#ffc744;fill-opacity:1;stroke:none;stroke-width:0.31999999;stroke-opacity:1" d="M 96.0625 78.222656 C 92.518329 80.006152 97.003227 80.971517 96.0625 78.222656 z " id="path952" transform="translate(5e-4)" /> <path style="fill:#ffc744;fill-opacity:1;stroke:none;stroke-width:0.31999999;stroke-opacity:1" d="M 83.748047 74.201172 C 81.280228 75.074133 79.631913 80.606932 83.1875 76.478516 C 83.665509 75.945747 84.789995 74.762185 83.748047 74.201172 z " id="path950" transform="translate(5e-4)" /> <path style="fill:#75a58b;fill-opacity:1;stroke:none;stroke-width:0.31999999;stroke-opacity:1" d="M 81.199219 71.984375 C 77.101687 73.532504 76.69888 79.402055 71.929688 80.228516 C 70.055569 82.509076 68.221941 84.698573 72.371094 82.197266 C 76.00627 79.964202 82.733717 76.854043 81.199219 71.984375 z " id="path948" transform="translate(5e-4)" /> <path style="fill:#fdb26e;fill-opacity:1;stroke:none;stroke-width:0.31999999;stroke-opacity:1" d="M 21.423828 71.960938 C 20.19529 74.140213 26.245107 77.698243 25.421875 79.804688 C 25.876335 83.36569 26.628097 84.7256 29.017578 84.599609 C 32.530898 87.178872 26.451108 85.847549 30.158203 89.263672 C 33.485138 90.75829 36.381403 97.726727 31.830078 99.251953 C 27.992409 104.78469 34.018429 112.70708 39.580078 107.47852 C 42.297884 100.03101 50.918909 108.13095 56.363281 107.13867 C 54.222695 104.19238 44.411257 105.05389 41.636719 100.39062 C 41.025155 96.760246 48.277986 95.512628 45.279297 90.589844 C 45.136454 87.485052 41.513058 85.761717 44.035156 84.765625 C 38.174958 84.627741 34.112527 80.128367 29.759766 76.984375 C 27.723261 74.468273 24.562972 72.67322 21.423828 71.960938 z M 44.417969 78.082031 C 41.539483 80.134905 50.54473 80.533173 45.121094 78.271484 L 44.417969 78.082031 z M 90.634766 101.24609 C 86.382377 104.46578 94.200877 104.90794 90.634766 101.24609 z M 71.513672 103.35156 C 67.638296 105.87534 74.875407 108.25252 72.390625 103.7793 L 71.978516 103.44141 L 71.513672 103.35156 z M 58.953125 107.25391 C 56.681685 109.14606 66.796446 108.0424 60.1875 107.3125 L 58.953125 107.25391 z " id="path946" transform="translate(5e-4)" /> <path style="fill:#ffc744;fill-opacity:1;stroke:none;stroke-width:0.31999999;stroke-opacity:1" d="M 102.08789 63.039062 C 99.250659 64.938631 100.00571 73.506566 102.14258 66.71875 C 102.24128 65.599954 102.8457 64.000002 102.08789 63.039062 z " id="path944" transform="translate(5e-4)" /> <path style="fill:#ffc744;fill-opacity:1;stroke:none;stroke-width:0.31999999;stroke-opacity:1" d="M 105.11914 51.839844 C 103.18342 53.455783 106.99964 53.43961 105.11914 51.839844 z " id="path942" transform="translate(5e-4)" /> <path style="fill:#ffc744;fill-opacity:1;stroke:none;stroke-width:0.31999999;stroke-opacity:1" d="m 26.083984,38.414062 c -2.112768,4.025257 -5.874866,8.715665 -7.693359,13.617188 -0.887432,5.200938 -2.438578,15.272604 5.730469,14.548828 6.920031,2.575358 14.470802,6.071422 21.923828,3.376953 3.725493,0.483123 9.644842,-1.653739 12.328125,-1.298828 3.673524,-0.813582 7.533135,0.226947 11.585937,-1.751953 C 75.698328,65.859168 81.106886,61.420719 81.972656,55.375 83.252843,49.210787 80.435473,44.299011 76.201172,40.998047 72.285269,41.019267 67.30219,37.464907 65.150391,40.755859 59.595696,39.75448 57.516331,48.964655 51.460938,46.820312 45.69446,45.114148 39.949986,43.466863 33.804688,43.25 c -6.101047,-2.530498 -5.103096,6.97648 -10.806641,7.373047 0.223539,-4.377131 2.275535,-8.805206 4.201172,-11.583985 -0.322429,-0.442369 -0.628831,-0.478389 -1.115235,-0.625 z" id="path940" transform="translate(5e-4)" inkscape:connector-curvature="0" sodipodi:nodetypes="cccccccccccccc" /> <path style="fill:#a8f5fb;fill-opacity:1;stroke:none;stroke-width:0.31999999;stroke-opacity:1" d="M 97.396484 35.199219 C 96.355999 37.195314 100.52132 46.151518 101.75977 43.919922 C 101.51757 40.677413 99.594666 37.331391 97.396484 35.199219 z " id="path938" transform="translate(5e-4)" /> <path style="fill:#ffc744;fill-opacity:1;stroke:none;stroke-width:0.31999999;stroke-opacity:1" d="M 86.728516 32.716797 C 84.795295 34.025946 88.642728 33.948466 86.728516 32.716797 z " id="path936" transform="translate(5e-4)" /> <path style="fill:#a6f3e1;fill-opacity:1;stroke:none;stroke-width:0.31999999;stroke-opacity:1" d="M 48.208984 27.216797 C 48.077371 27.195027 47.932641 27.194783 47.775391 27.220703 C 43.082154 28.294104 48.698826 35.471889 49.279297 29.4375 C 49.434079 28.588057 49.130276 27.369194 48.208984 27.216797 z " id="path934" transform="translate(5e-4)" /> <path style="fill:#ffc744;fill-opacity:1;stroke:none;stroke-width:0.31999999;stroke-opacity:1" d="M 20.166016 21.496094 C 15.872054 23.207118 23.991638 26.367429 21.056641 21.892578 L 20.644531 21.623047 L 20.166016 21.496094 z " id="path932" transform="translate(5e-4)" /> <path style="fill:#a8f5fb;fill-opacity:1;stroke:none;stroke-width:0.31999999;stroke-opacity:1" d="M 84.712891 19.193359 C 84.625761 19.176839 84.552521 19.177849 84.496094 19.199219 C 83.801551 20.92678 86.160708 22.343159 82.958984 21.244141 C 85.629408 25.444942 90.059502 28.631336 92.892578 32.720703 C 95.400496 31.000528 86.270818 23.710277 87.414062 23.070312 C 90.430091 23.655472 86.019854 19.441186 84.712891 19.193359 z M 113.64258 23.720703 C 111.85911 26.796455 117.16792 25.108403 113.64258 23.720703 z M 109.66797 25.597656 C 105.38346 25.438527 103.71095 34.586861 109.3457 30.576172 C 110.8062 29.361416 110.7053 27.45238 110.55859 25.759766 C 110.25113 25.659759 109.9536 25.608265 109.66797 25.597656 z " id="path930" transform="translate(5e-4)" /> <path style="fill:#ffc744;fill-opacity:1;stroke:none;stroke-width:0.31999999;stroke-opacity:1" d="M 104.59961 18.628906 C 101.70848 20.093592 106.64326 20.915925 104.59961 18.628906 z " id="path928" transform="translate(5e-4)" /> <path style="fill:#ffc744;fill-opacity:1;stroke:none;stroke-width:0.31999999;stroke-opacity:1" d="M 27.140625 12.503906 C 22.887849 15.524976 30.908576 14.832511 27.140625 12.503906 z " id="path926" transform="translate(5e-4)" /> <path style="fill:#ffc744;fill-opacity:1;stroke:none;stroke-width:0.31999999;stroke-opacity:1" d="M 43.857422 5.4394531 C 41.472096 6.206831 45.816261 6.2007604 43.857422 5.4394531 z " id="path924" transform="translate(5e-4)" /> <path style="fill:#ffc744;fill-opacity:1;stroke:none;stroke-width:0.31999999;stroke-opacity:1" d="M 37.259766 4.8007812 C 36.103207 5.5028784 38.817781 5.4042036 37.259766 4.8007812 z " id="path922" transform="translate(5e-4)" /> <path style="fill:#ffc744;fill-opacity:1;stroke:none;stroke-width:0.31999999;stroke-opacity:1" d="M 24.070312 4.5234375 C 20.938938 8.0151661 27.019991 7.4646766 24.070312 4.5234375 z M 35.238281 4.5644531 C 32.863598 6.3322139 37.909541 5.634581 35.238281 4.5644531 z " id="path920" transform="translate(5e-4)" /> <path style="fill:#ffc744;fill-opacity:1;stroke:none;stroke-width:0.31999999;stroke-opacity:1" d="M 20.025391 0 L 10.681641 0 C 13.190073 0.072236542 15.667916 0.31106213 18.027344 1.1894531 C 18.449113 0.30360462 19.196182 0.070400159 20.025391 0 z " id="path918" transform="translate(5e-4)" /> <path style="fill:#ffc744;fill-opacity:1;stroke:none;stroke-width:0.31999999;stroke-opacity:1" d="M 57.570312 0 C 66.870441 -0.0019605182 76.17071 0.02387301 85.464844 0.265625 C 88.13885 3.787848 89.017312 1.6588824 88.650391 0 L 57.570312 0 z " id="path916" transform="translate(5e-4)" /> <path style="fill:#ffc744;fill-opacity:1;stroke:none;stroke-width:0.31999999;stroke-opacity:1" d="M 20.628906 -0.083984375 C 20.4106 -0.089781251 20.231851 -0.017528542 20.025391 0 L 23.927734 0 C 22.934984 0.20008092 21.724001 -0.054905425 20.628906 -0.083984375 z " id="path95" transform="translate(5e-4)" /> <ellipse style="fill:#fdfbef;fill-opacity:1;stroke:none;stroke-opacity:1" id="path975" cx="38.931973" cy="56.410469" rx="4.1309924" ry="3.4550118" /> <ellipse style="fill:#fdfbef;fill-opacity:1;stroke:none;stroke-opacity:1" id="path977" cx="67.648628" cy="52.855312" rx="6.9600964" ry="6.559515" /> <ellipse style="fill:#ffec8f;fill-opacity:1;stroke:none;stroke-width:2.97191834;stroke-opacity:1" id="path979" cx="67.448349" cy="62.419189" rx="3.9557381" ry="1.8026148" /> <ellipse style="fill:#fff0a9;fill-opacity:1;stroke:none;stroke-width:2.97191834;stroke-opacity:1" id="path979-3" cx="35.451927" cy="49.700737" rx="3.9557381" ry="1.8026148" /> <path inkscape:connector-curvature="0" style="fill:#ebd3e1;fill-opacity:1;stroke:none;stroke-width:0.33418724;stroke-opacity:1" d="m 32.54882,26.401517 c -6.142124,1.373056 -11.990106,3.642912 -17.489837,6.638467 0.223548,-3.969657 7.1617,-5.625362 10.652544,-7.126192 1.979215,-0.302076 5.752857,-1.283037 6.837293,0.487725 z" id="path956-6" /> <path style="fill:#6bdef3;fill-opacity:1;stroke:none;stroke-opacity:1" d="M 65.298471,30.246288 C 60.409497,28.072612 48.970592,28.965482 52.67221,26.104854 81.272048,20.626812 86.272703,38.349396 65.298471,30.246288 Z" id="path1032" inkscape:connector-curvature="0" sodipodi:nodetypes="ccc" /> <path style="fill:#a4dde4;fill-opacity:1;stroke:none;stroke-width:1.36412084;stroke-opacity:1" d="M 55.144955,98.341502 C 48.523337,97.20741 63.949373,93.584848 68.962835,92.092347 83.67277,84.108066 86.898358,84.793608 91.519952,79.585908 85.549829,93.632614 64.102306,99.235049 55.144955,98.341502 Z" id="path1039" inkscape:connector-curvature="0" sodipodi:nodetypes="cccc" /> <path inkscape:connector-curvature="0" style="fill:#fe4b17;fill-opacity:1;stroke:none;stroke-width:0.42714256;stroke-opacity:1" d="M 9.3109,62.612132 C 9.1878287,62.59027 9.060973,62.599124 8.933947,62.643457 4.1759098,63.583095 8.1787607,75.091653 10.346057,65.925071 10.862059,64.42161 10.172399,62.765218 9.3109,62.612137 Z" id="path960-5" /> </g>
</svg>
